X: 160402
T: Paddy the Lilter 
C: BB
M: 6/8
Q: 1/8=320
L: 1/8
R: jig
K: D
A | "D"dAB AFD | "Em"EFG "D"FED | "Em"EFG "D"FEF | "G"GAB "A"cAc |
"D"dAB AFD | "Em"EFG "D"FED | "Em"EGB "A"Ace | "D"fdc "D"d2 :|
A| "A7"Ace geg | "D"fdf "A"ecA | "A"Ace "G"gab | "A7"gec "D"d2 B |
"A7"Ace geg | "D"fdf "Em"efg | "D"afd "Bm"Bcd |"A"edc "D"d2 :|
